cssgg/album.svg

<svg
  width="24"
  height="24"
  viewBox="0 0 24 24"
  fill="none"
  xmlns="http://www.w3.org/2000/svg"
>
  <path
    fill-rule="evenodd"
    clip-rule="evenodd"
    d="M2 19C2 20.6569 3.34315 22 5 22H19C20.6569 22 22 20.6569 22 19V5C22 3.34315 20.6569 2 19 2H5C3.34315 2 2 3.34315 2 5V19ZM20 19C20 19.5523 19.5523 20 19 20H5C4.44772 20 4 19.5523 4 19V5C4 4.44772 4.44772 4 5 4H10V12.0111L12.395 12.0112L14.0001 9.86419L15.6051 12.0112H18.0001L18 4H19C19.5523 4 20 4.44772 20 5V19ZM16 4H12V9.33585L14.0001 6.66046L16 9.33571V4Z"
    fill="currentColor"
  />
</svg>

<svg viewBox="0 0 24 24" xmlns="http://www.w3.org/2000/svg"><path fill-rule="evenodd" d="M2 19c0 1.65 1.34 3 3 3h14c1.65 0 3-1.35 3-3V5c0-1.66-1.35-3-3-3H5C3.34 2 2 3.34 2 5v14Zm18 0c0 .55-.45 1-1 1H5c-.56 0-1-.45-1-1V5c0-.56.44-1 1-1h5v8.01l2.39 0 1.6-2.15 1.6 2.14h2.39l-.01-8.02h1c.55 0 1 .44 1 1v14ZM16 4h-4v5.33l2-2.68 1.99 2.67V3.98Z"/></svg>
